X:1
T:The Twa Corbies (4)
M:6/8
L:1/8
K:C
 G| G2 B d2 d| e2 d d/2- B3/2 B| d2 c A2 A| c2 B B/2- G3/2 G| G2 B d2 d|\
 e2 d d/2- B3/2 B| d2 c A2 A| c2 B G2 G| G2 B d2 d| e2 dd-B B| d2 c A2 A|\
 c2 BB-G||
